public/assets/mock/objects/quavers-pink.svg

<svg width="32" height="36" viewBox="0 0 32 36" fill="none" xmlns="http://www.w3.org/2000/svg">
<g clip-path="url(#clip0_1887_4155)">
<mask id="path-1-inside-1_1887_4155" fill="white">
<path d="M29.2103 0.429961L30.0003 1.82996L30.4903 3.90996L30.3003 5.99996L30.2703 8.08996L30.5503 10.18L30.4103 12.27L30.2003 14.36L30.4603 16.45L30.6603 18.55L29.9703 20.65L30.2803 22.75L30.3703 24.85L30.3503 26.95L29.7503 28.79L28.6303 30.42L26.9103 31.42L24.9803 31.77L23.0503 32.14L21.2603 31.33L19.6203 30.46L18.5603 28.88L18.2703 26.66L19.6203 24.9L20.9803 23.1L23.2103 22.69L25.3303 22.14L27.6203 22.7L27.7703 20.72L27.7103 18.8L27.4103 16.88L27.4303 14.96L27.7903 13.03L27.4403 11.14L25.3803 11.66L23.4203 12.61L21.2103 12.76L19.2303 13.66L17.1603 14.27L15.1703 15.16L13.0803 15.55L12.7003 17.51L12.8803 19.53L13.0703 21.55L12.9003 23.57L13.3103 25.59L13.2503 27.62L13.0603 29.65L12.2203 31.23L11.4203 32.78L10.0503 33.92L8.36031 34.47L6.75031 35.16L5.77031 34.97L3.79031 34.13L2.02031 33.01L0.820312 31.13L1.21031 28.89L2.72031 27.46L4.16031 26.02L6.08031 25.21L8.16031 25.16L10.3303 25.61L10.4703 23.47L10.2903 21.38L10.5103 19.29L10.2103 17.2L9.94031 15.11L10.0703 13.02L10.4103 10.93L10.4803 8.83996L10.2703 6.74996L10.8803 6.11996L12.8303 5.47996L14.7503 4.71996L16.7803 4.32996L18.6703 3.48996L20.5203 2.49996L22.6603 2.42996L24.6203 1.80996L26.4803 0.849961L28.4603 0.209961L29.2303 0.419961L29.2103 0.429961ZM12.9703 12.57L15.1503 12.19L17.0703 11.09L19.1903 10.64L21.2603 10.03L23.2403 9.12996L25.3503 8.62996L27.5403 8.15996L27.3103 5.87996L27.2403 3.93996L25.2903 3.95996L23.3203 4.87996L21.2803 5.59996L19.2103 6.20996L17.1303 6.79996L15.1203 7.61996L13.1203 8.14996L12.9203 10.28L12.9503 12.55L12.9703 12.57Z"/>
</mask>
<path d="M29.2103 0.429961L30.0003 1.82996L30.4903 3.90996L30.3003 5.99996L30.2703 8.08996L30.5503 10.18L30.4103 12.27L30.2003 14.36L30.4603 16.45L30.6603 18.55L29.9703 20.65L30.2803 22.75L30.3703 24.85L30.3503 26.95L29.7503 28.79L28.6303 30.42L26.9103 31.42L24.9803 31.77L23.0503 32.14L21.2603 31.33L19.6203 30.46L18.5603 28.88L18.2703 26.66L19.6203 24.9L20.9803 23.1L23.2103 22.69L25.3303 22.14L27.6203 22.7L27.7703 20.72L27.7103 18.8L27.4103 16.88L27.4303 14.96L27.7903 13.03L27.4403 11.14L25.3803 11.66L23.4203 12.61L21.2103 12.76L19.2303 13.66L17.1603 14.27L15.1703 15.16L13.0803 15.55L12.7003 17.51L12.8803 19.53L13.0703 21.55L12.9003 23.57L13.3103 25.59L13.2503 27.62L13.0603 29.65L12.2203 31.23L11.4203 32.78L10.0503 33.92L8.36031 34.47L6.75031 35.16L5.77031 34.97L3.79031 34.13L2.02031 33.01L0.820312 31.13L1.21031 28.89L2.72031 27.46L4.16031 26.02L6.08031 25.21L8.16031 25.16L10.3303 25.61L10.4703 23.47L10.2903 21.38L10.5103 19.29L10.2103 17.2L9.94031 15.11L10.0703 13.02L10.4103 10.93L10.4803 8.83996L10.2703 6.74996L10.8803 6.11996L12.8303 5.47996L14.7503 4.71996L16.7803 4.32996L18.6703 3.48996L20.5203 2.49996L22.6603 2.42996L24.6203 1.80996L26.4803 0.849961L28.4603 0.209961L29.2303 0.419961L29.2103 0.429961ZM12.9703 12.57L15.1503 12.19L17.0703 11.09L19.1903 10.64L21.2603 10.03L23.2403 9.12996L25.3503 8.62996L27.5403 8.15996L27.3103 5.87996L27.2403 3.93996L25.2903 3.95996L23.3203 4.87996L21.2803 5.59996L19.2103 6.20996L17.1303 6.79996L15.1203 7.61996L13.1203 8.14996L12.9203 10.28L12.9503 12.55L12.9703 12.57Z" fill="#FF7F81" stroke="black" stroke-width="2" mask="url(#path-1-inside-1_1887_4155)"/>
</g>
<defs>
<clipPath id="clip0_1887_4155">
<rect width="32" height="35.33" fill="white"/>
</clipPath>
</defs>
</svg>

<?xml version="1.0" encoding="UTF-8"?>
<svg id="_레이어_1" data-name="레이어_1" xmlns="http://www.w3.org/2000/svg" width="32" height="36" version="1.1" xmlns:xlink="http://www.w3.org/1999/xlink" viewBox="0 0 32 36">
  <!-- Generator: Adobe Illustrator 29.6.1, SVG Export Plug-In . SVG Version: 2.1.1 Build 9)  -->
  <defs>
    <clipPath id="clippath">
      <rect width="32" height="35.33" fill="none"/>
    </clipPath>
    <mask id="mask" x="-.23" y="-.83" width="32.25" height="37.03" maskUnits="userSpaceOnUse">
      <g id="path-1-inside-1_1887_4155">
        <path d="M29.21.43l.79,1.4.49,2.08-.19,2.09-.03,2.09.28,2.09-.14,2.09-.21,2.09.26,2.09.2,2.1-.69,2.1.31,2.1.09,2.1-.02,2.1-.6,1.84-1.12,1.63-1.72,1-1.93.35-1.93.37-1.79-.81-1.64-.87-1.06-1.58-.29-2.22,1.35-1.76,1.36-1.8,2.23-.41,2.12-.55,2.29.56.15-1.98-.06-1.92-.3-1.92.02-1.92.36-1.93-.35-1.89-2.06.52-1.96.95-2.21.15-1.98.9-2.07.61-1.99.89-2.09.39-.38,1.96.18,2.02.19,2.02-.17,2.02.41,2.02-.06,2.03-.19,2.03-.84,1.58-.8,1.55-1.37,1.14-1.69.55-1.61.69-.98-.19-1.98-.84-1.77-1.12-1.2-1.88.39-2.24,1.51-1.43,1.44-1.44,1.92-.81,2.08-.05,2.17.45.14-2.14-.18-2.09.22-2.09-.3-2.09-.27-2.09.13-2.09.34-2.09.07-2.09-.21-2.09.61-.63,1.95-.64,1.92-.76,2.03-.39,1.89-.84,1.85-.99,2.14-.07,1.96-.62,1.86-.96,1.98-.64.77.21h-.02ZM12.97,12.57l2.18-.38,1.92-1.1,2.12-.45,2.07-.61,1.98-.9,2.11-.5,2.19-.47-.23-2.28-.07-1.94-1.95.02-1.97.92-2.04.72-2.07.61-2.08.59-2.01.82-2,.53-.2,2.13.03,2.27.02.02Z" fill="#fff"/>
      </g>
    </mask>
  </defs>
  <g clip-path="url(#clippath)">
    <g mask="url(#mask)">
      <path d="M29.21.43l.79,1.4.49,2.08-.19,2.09-.03,2.09.28,2.09-.14,2.09-.21,2.09.26,2.09.2,2.1-.69,2.1.31,2.1.09,2.1-.02,2.1-.6,1.84-1.12,1.63-1.72,1-1.93.35-1.93.37-1.79-.81-1.64-.87-1.06-1.58-.29-2.22,1.35-1.76,1.36-1.8,2.23-.41,2.12-.55,2.29.56.15-1.98-.06-1.92-.3-1.92.02-1.92.36-1.93-.35-1.89-2.06.52-1.96.95-2.21.15-1.98.9-2.07.61-1.99.89-2.09.39-.38,1.96.18,2.02.19,2.02-.17,2.02.41,2.02-.06,2.03-.19,2.03-.84,1.58-.8,1.55-1.37,1.14-1.69.55-1.61.69-.98-.19-1.98-.84-1.77-1.12-1.2-1.88.39-2.24,1.51-1.43,1.44-1.44,1.92-.81,2.08-.05,2.17.45.14-2.14-.18-2.09.22-2.09-.3-2.09-.27-2.09.13-2.09.34-2.09.07-2.09-.21-2.09.61-.63,1.95-.64,1.92-.76,2.03-.39,1.89-.84,1.85-.99,2.14-.07,1.96-.62,1.86-.96,1.98-.64.77.21h-.02ZM12.97,12.57l2.18-.38,1.92-1.1,2.12-.45,2.07-.61,1.98-.9,2.11-.5,2.19-.47-.23-2.28-.07-1.94-1.95.02-1.97.92-2.04.72-2.07.61-2.08.59-2.01.82-2,.53-.2,2.13.03,2.27.02.02Z" fill="#fcc" stroke="#000" stroke-width="2"/>
    </g>
  </g>
</svg>
